build/img/icon-facebook.svg

<svg width="11" height="20" viewBox="0 0 11 20" fill="none" xmlns="http://www.w3.org/2000/svg">
<path d="M7.33333 11.5H9.95238L11 7.5H7.33333V5.5C7.33333 4.47 7.33333 3.5 9.42857 3.5H11V0.14C10.6585 0.0970001 9.36886 0 8.00695 0C5.16267 0 3.14286 1.657 3.14286 4.7V7.5H0V11.5H3.14286V20H7.33333V11.5Z" fill="currentColor"/>
</svg>

<svg width="11" height="20" fill="none" xmlns="http://www.w3.org/2000/svg"><path d="M7.333 11.5h2.62L11 7.5H7.333v-2c0-1.03 0-2 2.096-2H11V.14C10.659.097 9.369 0 8.007 0 5.163 0 3.143 1.657 3.143 4.7v2.8H0v4h3.143V20h4.19v-8.5z" fill="currentColor"/></svg>
